svg/email-opened-twotone.svg

<svg xmlns="http://www.w3.org/2000/svg" width="24" height="24" viewBox="0 0 24 24">
	<path d="M12 13L4 8L12 3L20 8L12 13Z" fill="currentColor" fill-opacity="0">
		<animate attributeName="fill-opacity" values="0;0.3" begin="1s" dur="0.15s" fill="freeze" />
	</path>
	<g fill="none" stroke="currentColor" stroke-width="2" stroke-linecap="round">
		<path d="M3 8.06083C3 7.71247 3.1813 7.38921 3.47855 7.20755L12 2L20.5214 7.20755C20.8187 7.38921 21 7.71247 21 8.06083V18C21 18.5523 20.5523 19 20 19H4C3.44772 19 3 18.5523 3 18V8.06083Z" stroke-dasharray="64" stroke-dashoffset="64">
			<animate attributeName="stroke-dashoffset" values="64;0" dur="0.6s" fill="freeze" />
		</path>
		<path d="M3 8.5L12 14L21 8.5" stroke-dasharray="24" stroke-dashoffset="24">
			<animate attributeName="stroke-dashoffset" values="24;0" begin="0.6s" dur="0.4s" fill="freeze" />
		</path>
	</g>
</svg>

<svg xmlns="http://www.w3.org/2000/svg" width="24" height="24" viewBox="0 0 24 24">
	<g fill="currentColor">
		<path d="M12 13l-8 -5l8 -5l8 5l-8 5Z" fill-opacity="0">
			<animate attributeName="fill-opacity" values="0;0.3" begin="0.8s" dur="0.15s" fill="freeze" />
		</path>
	</g>
	<g fill="none" stroke="currentColor" stroke-width="2" stroke-linecap="round" stroke-linejoin="round">
		<path d="M3 8.06c0 -0.35 0.18 -0.67 0.48 -0.85l8.52 -5.21l8.52 5.21c0.3 0.18 0.48 0.5 0.48 0.85v9.94c0 0.55 -0.45 1 -1 1h-16c-0.55 0 -1 -0.45 -1 -1v-9.94Z" stroke-dasharray="64" stroke-dashoffset="64">
			<animate attributeName="stroke-dashoffset" values="64;0" dur="0.6s" fill="freeze" />
		</path>
		<path d="M3 8.5l9 5.5l9 -5.5" stroke-dasharray="24" stroke-dashoffset="24">
			<animate attributeName="stroke-dashoffset" values="24;0" begin="0.6s" dur="0.2s" fill="freeze" />
		</path>
	</g>
</svg>
